static/icons/dev.svg

<svg width="448" height="512" fill="none" xmlns="http://www.w3.org/2000/svg"><path d="M120.12 208.29c-3.88-2.9-7.77-4.35-11.65-4.35H91.03v104.47h17.45c3.88 0 7.77-1.45 11.65-4.35 3.88-2.9 5.82-7.25 5.82-13.06v-69.65c-.01-5.8-1.96-10.16-5.83-13.06ZM404.1 32H43.9C19.7 32 .06 51.59 0 75.8v360.4C.06 460.41 19.7 480 43.9 480h360.2c24.21 0 43.84-19.59 43.9-43.8V75.8c-.06-24.21-19.7-43.8-43.9-43.8ZM154.2 291.19c0 18.81-11.61 47.31-48.36 47.25h-46.4V172.98h47.38c35.44 0 47.36 28.46 47.37 47.28l.01 70.93Zm100.68-88.66H201.6v38.42h32.57v29.57H201.6v38.41h53.29v29.57h-62.18c-11.16.29-20.44-8.53-20.72-19.69V193.7c-.27-11.15 8.56-20.41 19.71-20.69h63.19l-.01 29.52Zm103.64 115.29c-13.2 30.75-36.85 24.63-47.44 0l-38.53-144.8h32.57l29.71 113.72 29.57-113.72h32.58l-38.46 144.8Z" fill="#fff"/></svg>

<svg width="448" height="512" viewBox="0 0 448 512" fill="none" xmlns="http://www.w3.org/2000/svg">
<path d="M120.12 208.29C116.24 205.39 112.35 203.94 108.47 203.94H91.03V308.41H108.48C112.36 308.41 116.25 306.96 120.13 304.06C124.01 301.16 125.95 296.81 125.95 291V221.35C125.94 215.55 123.99 211.19 120.12 208.29V208.29ZM404.1 32H43.9C19.7 32 0.06 51.59 0 75.8V436.2C0.06 460.41 19.7 480 43.9 480H404.1C428.31 480 447.94 460.41 448 436.2V75.8C447.94 51.59 428.3 32 404.1 32V32ZM154.2 291.19C154.2 310 142.59 338.5 105.84 338.44H59.44V172.98H106.82C142.26 172.98 154.18 201.44 154.19 220.26L154.2 291.19ZM254.88 202.53H201.6V240.95H234.17V270.52H201.6V308.93H254.89V338.5H192.71C181.55 338.79 172.27 329.97 171.99 318.81V193.7C171.72 182.55 180.55 173.29 191.7 173.01H254.89L254.88 202.53ZM358.52 317.82C345.32 348.57 321.67 342.45 311.08 317.82L272.55 173.02H305.12L334.83 286.74L364.4 173.02H396.98L358.52 317.82V317.82Z" fill="white"/>
</svg>
